icons/install-line.svg

<svg xmlns="http://www.w3.org/2000/svg" width="24" height="24" fill="none"><g clip-path="url(#a)"><g><path fill="#121212" d="M9 2V4H5L4.999 14H18.999L19 4H15V2H20C20.2652 2 20.5196 2.10536 20.7071 2.29289C20.8946 2.48043 21 2.73478 21 3V21C21 21.2652 20.8946 21.5196 20.7071 21.7071C20.5196 21.8946 20.2652 22 20 22H4C3.73478 22 3.48043 21.8946 3.29289 21.7071C3.10536 21.5196 3 21.2652 3 21V3C3 2.73478 3.10536 2.48043 3.29289 2.29289C3.48043 2.10536 3.73478 2 4 2H9ZM18.999 16H4.999L5 20H19L18.999 16ZM17 17V19H15V17H17ZM13 2V7H16L12 11L8 7H11V2H13Z"/></g></g><defs><clipPath id="a"><rect width="24" height="24" fill="white"/></clipPath></defs></svg>

<svg width="24" height="24" fill="none" xmlns="http://www.w3.org/2000/svg"><g clip-path="url(#a)"><path d="M9 2v2H5l-.001 10h14L19 4h-4V2h5a1 1 0 0 1 1 1v18a1 1 0 0 1-1 1H4a1 1 0 0 1-1-1V3a1 1 0 0 1 1-1h5Zm9.999 14h-14L5 20h14l-.001-4ZM17 17v2h-2v-2h2ZM13 2v5h3l-4 4-4-4h3V2h2Z" /></g><defs><clipPath id="a"><path fill="#fff" d="M0 0h24v24H0z"/></clipPath></defs></svg>
